X:1
T:Title
%%score { ( 1 3 ) | ( 2 4 ) }
L:1/8
M:4/4
K:Ab
V:1 treble nm="Grand Piano"
V:3 treble 
V:2 bass 
V:4 bass 
V:1
 z4 z2[Q:1/4=100] EE | [CA][CA] [CA]2 [CA]2 [CA][DB] | [Ec][Ec] [Ec]2 [CA]2 EE | [EA]A[EA]A c2 A2 | %4
 [GB]4 z2 [B,E][DE] | [CA]2 [CA][CA] [CA]2 [EA][EB] | [Ec]2 [Ec]2 [CEA]2 [EA]A | %7
 [DGB]2 [GB]B GG G2 | [CA]4 z2 [EA][EB] | [Ec]c c2 c2 [Ec][Ec] | [FA]2 F2 F2 F[EG] | %11
 [FA][FA] [FA]2 G3 A | B4 z2 EE | [CA]2 [CA][CA] [CA]2 [EA][EB] | c2 c2 A2 AA | %15
 [DGB]2 [GB]B [B,EG]3 [B,DG] |[M:3/4] [A,CA]4 z2 |[M:1/4] E2 | %18
[M:4/4] [Ec]2 [Ec]>[Ec] [Ec][Ec] [Ec]2 | [Ae]4 [Ec]2 z [Ec] | B2 B>B AA B2 | %21
[M:7/8] [Ec]-[Ec]-[Ec]- [Ec]3 z |[M:1/8] E |[M:4/4] [Ec]2 [Ec]>[Ec] [Ec][Ec] [Ec]2 | %24
[M:9/8] [Ee]2 [Fc]- [Fc] [Fd]2- [Fd][Fd][Fd] | %25
 c c2 AGB d3/2c3/2[Q:1/4=99][Q:1/4=97][Q:1/4=96][Q:1/4=94][Q:1/4=93][Q:1/4=91][Q:1/4=90][Q:1/4=88][Q:1/4=87][Q:1/4=85][Q:1/4=84][Q:1/4=82][Q:1/4=81][Q:1/4=79][Q:1/4=78][Q:1/4=76] | %26
[M:3/4] [CA]6 |] %27
V:2
 z4 z2 E,E, | [A,,A,]2 [A,,A,]2 [A,,A,]2 [A,,A,][A,,A,] | [A,,A,]2 [A,,A,]2 [A,,A,]2 E,2 | %3
 z E z E [A,E]2 [F,CF]2 | [E,E]4 z2 [E,G,][E,B,] | [A,,A,]2 [A,,A,]2 [A,,A,]2 [C,A,][E,G,] | %6
 A,2 A,2 A,,2 z E | E,2 z G EE [E,B,D]2 | [A,,A,]4 z2 [C,A,][E,G,] | z E [A,E]2 [A,E]2 [A,,A,]2 | %10
 [D,A,]2 [D,A,D]2 [D,A,D]2 [D,A,D][D,A,] | [D,D]2 [D,D]2 [E,B,E]3 [E,A,E] | %12
 [E,G,E]4 z2 [E,G,B,][E,B,D] | [A,,A,]2 [A,,A,]2 [A,,A,]2 [C,A,][E,G,] | [A,E]2 [A,E]2 [A,CE]2 EE | %15
 z2 [E,D]2 z4 |[M:3/4] A,,4 z2 |[M:1/4] E,2 | %18
[M:4/4] [A,,A,]2 [A,,A,]>[A,,A,] [A,,A,][A,,A,] [A,,A,]2 | A,2 z2 z4 | %20
 [E,G,E]2 [E,G,D]>[E,G,D] [F,C][F,C] [E,G,E]2 |[M:7/8] A,A, E,2 A,,2 z |[M:1/8] E, | %23
[M:4/4] [A,,A,]2 [A,,A,]>[A,,A,] [A,,A,][A,,A,] [A,,A,]2 | %24
[M:9/8] [C,A,]2 [F,A,]- [F,A,] [D,A,]2- [D,A,][D,A,][D,A,] | z3 z .B,2 z3 |[M:3/4] [A,,E,]6 |] %27
V:3
 x8 | x8 | x8 | z2 C2 z4 | x8 | x8 | z4 z2 C2 | x8 | x8 | x8 | x8 | x8 | x8 | x8 | x8 | x8 | %16
[M:3/4] x6 |[M:1/4] x2 |[M:4/4] x8 | x8 | x8 |[M:7/8] z2 A,2 A,2 z |[M:1/8] x |[M:4/4] x8 | %24
[M:9/8] x9 | x9 |[M:3/4] x6 |] %27
V:4
 x8 | x8 | x8 | [C,A,]2 A,,2 z4 | x8 | x8 | z4 z2 A,,2 | z2 [E,D]2 [E,B,]2 z2 | x8 | A,2 z2 z4 | %10
 x8 | x8 | x8 | x8 | z4 z2 [A,C]2 | E,2 z G E,3 E, |[M:3/4] x6 |[M:1/4] x2 |[M:4/4] x8 | %19
 C2- [E,C]2 [A,,A,]2 z [A,,A,] | x8 |[M:7/8] x7 |[M:1/8] x |[M:4/4] x8 |[M:9/8] x9 | %25
 [E,A,E] [E,A,E]2 [E,A,C]E,-[E,-D] [E,F]3/2[E,E]3/2 |[M:3/4] x6 |] %27

